X: 40415
T: Tom McElvogue's
R: jig
M: 6/8
K: Gmajor
|:G2B BAB|GBd dBd|edc dcB|ceg fga|
G2B BAB|GBd dBd|edc dcB|cAF G3:|
|:d3 gda|bag agf|e3 aeb|c'ba bge|
d3 gda|bag age|dgb afd|cBA G3:|
|:d3 BdB|GFG Bdg|ecA dBG|FG^G ABc|
d3 BdB|GFG Bdg|ecA dBG|DAF G3:|

